backend/papyrus-web-graphics/src/main/resources/icons-override/full/obj16/ReplyAction.svg

<?xml version="1.0" encoding="UTF-8" standalone="no"?>
<svg
   width="18"
   height="16"
   viewBox="0 0 4.7624998 4.2333332"
   version="1.1"
   id="svg8"
   inkscape:version="1.3 (0e150ed, 2023-07-21)"
   sodipodi:docname="ReplyAction.svg"
   xml:space="preserve"
   xmlns:inkscape="http://www.inkscape.org/namespaces/inkscape"
   xmlns:sodipodi="http://sodipodi.sourceforge.net/DTD/sodipodi-0.dtd"
   xmlns:xlink="http://www.w3.org/1999/xlink"
   xmlns="http://www.w3.org/2000/svg"
   xmlns:svg="http://www.w3.org/2000/svg"
   xmlns:rdf="http://www.w3.org/1999/02/22-rdf-syntax-ns#"
   xmlns:cc="http://creativecommons.org/ns#"
   xmlns:dc="http://purl.org/dc/elements/1.1/"><metadata
     id="metadata30"><rdf:RDF><cc:Work
         rdf:about=""><dc:format>image/svg+xml</dc:format><dc:type
           rdf:resource="http://purl.org/dc/dcmitype/StillImage" /></cc:Work></rdf:RDF></metadata><defs
     id="defs2"><linearGradient
       inkscape:collect="always"
       id="linearGradient872"><stop
         style="stop-color:#cae2f9;stop-opacity:1;"
         offset="0"
         id="stop868" /><stop
         style="stop-color:#fdfeff;stop-opacity:1"
         offset="1"
         id="stop870" /></linearGradient><linearGradient
       inkscape:collect="always"
       xlink:href="#linearGradient872"
       id="linearGradient860"
       x1="-1.3993205"
       y1="1.8995942"
       x2="0.80842233"
       y2="4.3887782"
       gradientUnits="userSpaceOnUse"
       gradientTransform="matrix(1.1203209,0,0,1.2028424,3.9742387,-0.10140202)" /><linearGradient
       inkscape:collect="always"
       xlink:href="#linearGradient1086"
       id="linearGradient1088"
       x1="-0.80093998"
       y1="-3.7348001"
       x2="2.5992501"
       y2="4.0184498"
       gradientUnits="userSpaceOnUse" /><linearGradient
       inkscape:collect="always"
       id="linearGradient1086"><stop
         style="stop-color:#b9c8de;stop-opacity:1;"
         offset="0"
         id="stop1082" /><stop
         style="stop-color:#3d7ebd;stop-opacity:1"
         offset="1"
         id="stop1084" /></linearGradient><linearGradient
       inkscape:collect="always"
       xlink:href="#linearGradient1086"
       id="linearGradient885"
       gradientUnits="userSpaceOnUse"
       x1="-0.80093998"
       y1="-3.7348001"
       x2="2.5992501"
       y2="4.0184498" /><linearGradient
       inkscape:collect="always"
       xlink:href="#linearGradient1086"
       id="linearGradient887"
       gradientUnits="userSpaceOnUse"
       x1="-0.80093998"
       y1="-3.7348001"
       x2="2.5992501"
       y2="4.0184498" /><linearGradient
       id="linearGradient5591-4"><stop
         style="stop-color:#e0e566;stop-opacity:1;"
         offset="0"
         id="stop5593-0" /><stop
         style="stop-color:#82c448;stop-opacity:1;"
         offset="1"
         id="stop5595-5" /></linearGradient><linearGradient
       id="linearGradient5583-2"><stop
         style="stop-color:#426e4a;stop-opacity:1;"
         offset="0"
         id="stop5585-3" /><stop
         style="stop-color:#669f71;stop-opacity:1;"
         offset="1"
         id="stop5587-3" /></linearGradient><linearGradient
       inkscape:collect="always"
       xlink:href="#linearGradient872"
       id="linearGradient865"
       x1="-47.666786"
       y1="112.97314"
       x2="-163.75984"
       y2="34.596439"
       gradientUnits="userSpaceOnUse"
       gradientTransform="matrix(0.00998666,0,0,0.01146447,-1.5444891,1.8063531)" /></defs><sodipodi:namedview
     id="base"
     pagecolor="#ffffff"
     bordercolor="#666666"
     borderopacity="1.0"
     inkscape:pageopacity="0"
     inkscape:pageshadow="2"
     inkscape:zoom="19.60496"
     inkscape:cx="12.598853"
     inkscape:cy="11.374673"
     inkscape:document-units="mm"
     inkscape:current-layer="g872-7"
     inkscape:document-rotation="0"
     showgrid="false"
     inkscape:pagecheckerboard="false"
     inkscape:window-width="2560"
     inkscape:window-height="1387"
     inkscape:window-x="0"
     inkscape:window-y="25"
     inkscape:window-maximized="0"
     units="px"
     inkscape:showpageshadow="2"
     inkscape:deskcolor="#d1d1d1" /><g
     id="g27"><g
       id="g882"><rect
         style="fill:url(#linearGradient860);fill-opacity:1;stroke:#4d81b4;stroke-width:0.245713;stroke-linecap:round;stroke-miterlimit:4;stroke-dasharray:none;stroke-dashoffset:0.300095;stroke-opacity:1"
         id="rect852"
         width="3.6212182"
         height="2.7962537"
         x="0.67341644"
         y="0.92670608"
         ry="0.78151459" /><g
         id="g1096"
         transform="matrix(0.01450716,0,0,0.01450716,-0.8450552,0.89701818)"><g
           id="g1"
           transform="translate(34.420394)"><g
             inkscape:label="Rendered Gears"
             transform="matrix(9.564118,0,0,9.564118,229.47846,98.421382)"
             id="g1057"
             style="fill:url(#linearGradient1088);fill-opacity:1;stroke:#2d6296;stroke-width:0.83646;stroke-miterlimit:4;stroke-dasharray:none;stroke-opacity:1"><path
               style="fill:url(#linearGradient885);fill-opacity:1;stroke:#2d6296;stroke-width:0.83646;stroke-miterlimit:4;stroke-dasharray:none;stroke-opacity:1"
               d="m 3.7348,-0.80094 0.94462,-0.20258 0.31568,0.00993 1.36177,0.64918 V 0.34441 L 4.9951,0.99359 4.67942,1.00352 3.7348,0.80094 3.20725,2.07455 4.01845,2.59925 4.23464,2.8295 4.73852,4.25146 4.25146,4.73852 2.8295,4.23464 2.59925,4.01845 2.07455,3.20725 0.80094,3.7348 1.00352,4.67942 0.99359,4.9951 0.34441,6.35687 H -0.34441 L -0.99359,4.9951 -1.00352,4.67942 -0.80094,3.7348 -2.07455,3.20725 -2.59925,4.01845 -2.8295,4.23464 -4.25146,4.73852 -4.73852,4.25146 -4.23464,2.8295 -4.01845,2.59925 -3.20725,2.07455 -3.7348,0.80094 -4.67942,1.00352 -4.9951,0.99359 -6.35687,0.34441 v -0.68882 l 1.36177,-0.64918 0.31568,-0.00993 0.94462,0.20258 0.52755,-1.27361 -0.8112,-0.5247 -0.21619,-0.23025 -0.50388,-1.42196 0.48706,-0.48706 1.42196,0.50388 0.23025,0.21619 0.5247,0.8112 1.27361,-0.52755 -0.20258,-0.94462 0.00993,-0.31568 0.64918,-1.36177 h 0.68882 l 0.64918,1.36177 0.00993,0.31568 -0.20258,0.94462 1.27361,0.52755 0.5247,-0.8112 0.23025,-0.21619 1.42196,-0.50388 0.48706,0.48706 -0.50388,1.42196 -0.21619,0.23025 -0.8112,0.5247 z"
               id="path1053" /><circle
               style="fill:url(#linearGradient887);fill-opacity:1;stroke:#2d6296;stroke-width:0.83646;stroke-miterlimit:4;stroke-dasharray:none;stroke-opacity:1"
               id="path1055"
               cx="0"
               cy="0"
               r="2" /></g><circle
             style="opacity:1;fill:#ffffff;fill-opacity:1;stroke:none;stroke-width:15.0695;stroke-miterlimit:4;stroke-dasharray:none;stroke-opacity:1"
             id="path1090"
             cx="229.47845"
             cy="98.421379"
             r="4.6329565" /></g></g><g
         id="g882-0"
         transform="translate(-4.8914565,-3.1423424)"><g
           id="g882-5"
           transform="matrix(1.2077228,0,0,1,11.10202,2.5360063)"><g
             id="g853"
             transform="matrix(0.7883593,0,0,0.7883593,0.7425602,-7.9568725)"><g
               id="g872" /><g
               id="g2"
               transform="matrix(0.77292269,0,0,0.77292269,0.65765362,2.5695658)"><g
                 id="g872-7"
                 transform="rotate(90,-9.3141547,1.8478894)"><path
                   style="fill:#2e4f6e;fill-opacity:1;stroke:none;stroke-width:0.492179px;stroke-linecap:butt;stroke-linejoin:miter;stroke-opacity:1"
                   d="M 2.4664443,1.3467098 H 4.2449634 L 3.3557039,2.3376272 Z"
                   id="path856-7-5"
                   sodipodi:nodetypes="cccc" /><path
                   style="fill:none;fill-opacity:1;stroke:#2e4f6e;stroke-width:0.285272px;stroke-linecap:butt;stroke-linejoin:miter;stroke-opacity:1"
                   d="M 3.3617656,0.34505347 V 1.3945522"
                   id="path868-3" /></g></g></g></g></g></g></g></svg>

<svg xmlns="http://www.w3.org/2000/svg" xmlns:xlink="http://www.w3.org/1999/xlink" xml:space="preserve" width="16" height="16">
    <defs>
        <linearGradient id="a">
            <stop offset="0" style="stop-color:#cae2f9;stop-opacity:1"/>
            <stop offset="1" style="stop-color:#fdfeff;stop-opacity:1"/>
        </linearGradient>
        <linearGradient xlink:href="#a" id="c" x1="-1.399" x2=".808" y1="1.9" y2="4.389" gradientTransform="matrix(1.12032 0 0 1.20284 3.974 -.101)" gradientUnits="userSpaceOnUse"/>
        <linearGradient xlink:href="#b" id="d" x1="-.801" x2="2.599" y1="-3.735" y2="4.018" gradientUnits="userSpaceOnUse"/>
        <linearGradient id="b">
            <stop offset="0" style="stop-color:#b9c8de;stop-opacity:1"/>
            <stop offset="1" style="stop-color:#3d7ebd;stop-opacity:1"/>
        </linearGradient>
        <linearGradient xlink:href="#b" id="e" x1="-.801" x2="2.599" y1="-3.735" y2="4.018" gradientUnits="userSpaceOnUse"/>
        <linearGradient xlink:href="#b" id="f" x1="-.801" x2="2.599" y1="-3.735" y2="4.018" gradientUnits="userSpaceOnUse"/>
    </defs>
    <g transform="matrix(0 2.28451 -2.75906 0 7.33 .748)">
        <rect width="3.621" height="2.796" x=".673" y=".927" ry=".782" style="fill:url(#c);fill-opacity:1;stroke:#4d81b4;stroke-width:.245713;stroke-linecap:round;stroke-miterlimit:4;stroke-dasharray:none;stroke-dashoffset:.300095;stroke-opacity:1" transform="matrix(0 -1.35885 1.64112 0 -.433 3.042)"/>
        <g transform="matrix(0 -.01971 .0238 0 1.039 3.512)">
            <g style="fill:url(#d);fill-opacity:1;stroke:#2d6296;stroke-width:.83646;stroke-miterlimit:4;stroke-dasharray:none;stroke-opacity:1" transform="translate(229.478 98.421)scale(9.56412)">
                <path d="m3.735-.8.944-.204.316.01 1.362.65v.688l-1.362.65-.316.01L3.735.8l-.528 1.274.811.524.217.23.504 1.422-.488.488-1.422-.504-.23-.217-.524-.81L.8 3.734l.203.944-.01.316-.65 1.362h-.688l-.65-1.362-.01-.316.203-.944-1.274-.528-.524.811-.23.217-1.422.504-.488-.488.504-1.422.217-.23.81-.524L-3.734.8l-.944.203-.316-.01-1.362-.65v-.688l1.362-.65.316-.01.944.203.528-1.274-.811-.524-.217-.23-.504-1.422.488-.488 1.422.504.23.217.524.81L-.8-3.734l-.203-.944.01-.316.65-1.362h.688l.65 1.362.01.316-.203.944 1.274.528.524-.811.23-.217 1.422-.504.488.488-.504 1.421-.217.23-.81.525z" style="fill:url(#e);fill-opacity:1;stroke:#2d6296;stroke-width:.83646;stroke-miterlimit:4;stroke-dasharray:none;stroke-opacity:1"/>
                <circle r="2" style="fill:url(#f);fill-opacity:1;stroke:#2d6296;stroke-width:.83646;stroke-miterlimit:4;stroke-dasharray:none;stroke-opacity:1"/>
            </g>
            <circle cx="229.478" cy="98.421" r="4.633" style="opacity:1;fill:#fff;fill-opacity:1;stroke:none;stroke-width:15.0695;stroke-miterlimit:4;stroke-dasharray:none;stroke-opacity:1"/>
        </g>
        <path d="M2.466 1.347h1.779l-.89.99Z" style="fill:#2e4f6e;fill-opacity:1;stroke:none;stroke-width:.492179px;stroke-linecap:butt;stroke-linejoin:miter;stroke-opacity:1"/>
        <path d="M3.362.345v1.05" style="fill:none;fill-opacity:1;stroke:#2e4f6e;stroke-width:.285272px;stroke-linecap:butt;stroke-linejoin:miter;stroke-opacity:1"/>
    </g>
</svg>
